img/icons/Group 5.svg

<svg width="52" height="52" viewBox="0 0 52 52" fill="none" xmlns="http://www.w3.org/2000/svg">
<path d="M51.2125 32.3547C47.7056 46.3789 33.6779 54.7057 19.6502 51.1997C5.62255 47.6936 -2.70641 33.6695 0.800517 19.6453C4.30744 5.62114 18.3351 -2.70573 32.3628 0.800316C46.1713 4.30636 54.7195 18.3305 51.2125 32.3547Z" fill="#5CDEDA"/>
<path d="M27.7583 19.2236C28.7582 19.2644 31.1579 19.0196 31.9178 19.5093C32.8377 20.0806 33.0776 21.5905 32.4377 22.4883C31.7578 23.4678 30.318 23.3045 29.0782 23.3045C27.7583 23.3045 26.4385 23.3045 25.1187 23.3045C23.9988 25.0593 22.8789 26.8141 21.7591 28.6097C24.1588 28.6913 26.8384 28.6097 29.1981 28.6097C30.198 28.6097 31.7178 28.4873 32.1978 29.0994C32.9177 29.8748 32.9577 30.9359 32.4377 31.8337C31.8778 32.8131 30.7979 32.7315 29.7981 32.7315C27.7183 32.7315 20.1193 32.7723 19.1194 32.7723C17.9996 34.4863 16.9197 36.2002 15.8398 37.9142C18.8795 37.9142 21.8791 37.955 24.7187 37.955C26.9584 37.955 31.3179 38.1999 33.2776 37.547C36.6372 36.4043 38.5969 32.4866 37.837 29.0994C37.4371 27.1814 37.2771 27.4671 36.3972 25.9571C37.1571 24.5696 37.6771 24.2431 37.917 22.4475C38.517 18.2442 35.5573 14.2041 31.0779 14.0408C30.478 14.9386 28.3982 18.2034 27.7583 19.2236Z" fill="white"/>
<path d="M15.8398 37.9142C16.9196 36.2002 17.9995 34.4862 19.1193 32.7722V28.6505H21.759C22.039 28.2016 24.9986 23.5494 25.1186 23.3453L19.1193 23.3045L19.1993 19.2644L27.7582 19.2236C28.4382 18.1625 30.4779 14.9386 31.0778 14H14V37.9142H15.8398Z" fill="white"/>
</svg>

<svg width="52" height="52" viewBox="0 0 52 52" fill="none" xmlns="http://www.w3.org/2000/svg"><path d="M51.212 32.355C47.706 46.379 33.678 54.705 19.65 51.2 5.623 47.694-2.706 33.67.8 19.645 4.308 5.621 18.336-2.705 32.364.8c13.808 3.506 22.356 17.53 18.85 31.555z" fill="#5CDEDA"/><path d="M27.758 19.224c1 .04 3.4-.204 4.16.285.92.572 1.16 2.081.52 2.98-.68.979-2.12.816-3.36.816h-3.96a576.95 576.95 0 00-3.359 5.305c2.4.081 5.08 0 7.44 0 .999 0 2.519-.123 2.999.49.72.775.76 1.836.24 2.734-.56.98-1.64.897-2.64.897-2.08 0-9.679.041-10.679.041-1.12 1.714-2.2 3.428-3.28 5.142 3.04 0 6.04.041 8.88.041 2.24 0 6.599.245 8.559-.408 3.36-1.143 5.319-5.06 4.559-8.448-.4-1.918-.56-1.632-1.44-3.142.76-1.387 1.28-1.714 1.52-3.51.6-4.203-2.36-8.243-6.84-8.406-.599.898-2.679 4.162-3.319 5.183z" fill="#fff"/><path d="M15.84 37.914a367.64 367.64 0 013.28-5.142v-4.121h2.639c.28-.45 3.24-5.102 3.36-5.306l-6-.04.08-4.04 8.56-.041c.68-1.061 2.719-4.285 3.319-5.224H14v23.914h1.84z" fill="#fff"/></svg>
